X: 13923
T: Foxhunter, The
R: slip jig
M: 9/8
K: Gmajor
B3 BdB c2A|BAG BdB ABc|BAG BdB c2A|dBG GDG G3:|
g3 edc Bcd|ecA ABA ABd|g3 edc Bcd|gdB GAG GBd|
g3 edc Bcd|ecA ABA A2B|def gfe def|g3 agf g3||

